packages/bezier-icons/icons/briefcase.svg

<svg xmlns="http://www.w3.org/2000/svg" width="24" height="24" fill="none" viewBox="0 0 24 24"><path fill="#313234" fill-rule="evenodd" d="M20 14H4V8h16zm0 4H4v-2h16zM15 6H9V5h6zm2 0h3.5c.827 0 1.5.673 1.5 1.5v11c0 .827-.673 1.5-1.5 1.5h-17c-.827 0-1.5-.673-1.5-1.5v-11C2 6.673 2.673 6 3.5 6H7V4.5C7 3.673 7.673 3 8.5 3h7c.827 0 1.5.673 1.5 1.5zm-3 7h-4v-2h4z" clip-rule="evenodd"/></svg>

<svg width="24" height="24" viewBox="0 0 24 24" fill="none" xmlns="http://www.w3.org/2000/svg">
<path fill-rule="evenodd" clip-rule="evenodd" d="M20 14H4V8H20V14ZM20 18H4V16H20V18ZM15 6H9V5H15V6ZM17 6H20.5C21.327 6 22 6.673 22 7.5V18.5C22 19.327 21.327 20 20.5 20H3.5C2.673 20 2 19.327 2 18.5V7.5C2 6.673 2.673 6 3.5 6H7V4.5C7 3.673 7.673 3 8.5 3H15.5C16.327 3 17 3.673 17 4.5V6ZM14 13H10V11H14V13Z" fill="#313234"/>
</svg>
